img/recomendation/6.svg

<svg width="44" height="44" viewBox="0 0 44 44" fill="none" xmlns="http://www.w3.org/2000/svg">
<g id="ri:bank-fill">
<path id="Vector" d="M3.66669 36.6667H40.3334V40.3334H3.66669V36.6667ZM7.33335 22H11V34.8334H7.33335V22ZM16.5 22H20.1667V34.8334H16.5V22ZM23.8334 22H27.5V34.8334H23.8334V22ZM33 22H36.6667V34.8334H33V22ZM3.66669 12.8334L22 3.66669L40.3334 12.8334V20.1667H3.66669V12.8334ZM22 14.6667C22.4863 14.6667 22.9526 14.4735 23.2964 14.1297C23.6402 13.7859 23.8334 13.3196 23.8334 12.8334C23.8334 12.3471 23.6402 11.8808 23.2964 11.537C22.9526 11.1932 22.4863 11 22 11C21.5138 11 21.0475 11.1932 20.7037 11.537C20.3598 11.8808 20.1667 12.3471 20.1667 12.8334C20.1667 13.3196 20.3598 13.7859 20.7037 14.1297C21.0475 14.4735 21.5138 14.6667 22 14.6667Z" fill="#13023E"/>
</g>
</svg>

<svg width="44" height="44" viewBox="0 0 44 44" fill="none" xmlns="http://www.w3.org/2000/svg"><g id="ri:bank-fill"><path id="Vector" d="M3.667 36.667h36.666v3.666H3.667v-3.666zM7.333 22H11v12.833H7.333V22zm9.167 0h3.667v12.833H16.5V22zm7.333 0H27.5v12.833h-3.667V22zM33 22h3.667v12.833H33V22zM3.667 12.833L22 3.667l18.333 9.166v7.334H3.667v-7.334zM22 14.667A1.833 1.833 0 1022 11a1.833 1.833 0 000 3.667z" fill="#13023E"/></g></svg>
